source/img/services/services-nav/analytic-icon.svg

<svg width="32" height="33" viewBox="0 0 32 33" fill="none" xmlns="http://www.w3.org/2000/svg">
<g clip-path="url(#clip0)">
<path d="M19.5495 19.3209L18.4404 18.2119L19.5629 16.8674L20.4501 17.7546L21.3422 17.7497L26.886 23.5176L24.6436 25.7601L19.0998 19.9922L19.5495 19.3209Z" fill="#AAAAAA"/>
<path fill-rule="evenodd" clip-rule="evenodd" d="M13.1766 5.50794C9.81603 5.54064 7.07272 8.29995 7.04923 11.671C7.02575 15.0421 9.73099 17.7484 13.0916 17.7157C16.4521 17.683 19.1954 14.9237 19.2189 11.5526C19.2272 10.3653 18.8973 9.26154 18.32 8.33039C18.2044 8.1441 18.2629 7.8966 18.4506 7.77759C18.6383 7.65858 18.884 7.71313 18.9996 7.89942C19.6531 8.95336 20.0263 10.2031 20.0169 11.5448C19.9904 15.358 16.8873 18.4792 13.086 18.5162C9.28469 18.5532 6.22466 15.492 6.25122 11.6788C6.27778 7.86561 9.38088 4.74443 13.1822 4.70743C14.6062 4.69357 15.9274 5.11496 17.0205 5.84806C17.2023 5.96997 17.2487 6.21829 17.1241 6.4027C16.9996 6.58712 16.7512 6.63779 16.5694 6.51588C15.6034 5.86804 14.4366 5.49568 13.1766 5.50794Z" fill="#0A3D76"/>
<path fill-rule="evenodd" clip-rule="evenodd" d="M13.0799 19.3178C17.3219 19.2766 20.7848 15.7935 20.8144 11.5383C20.844 7.28297 17.4291 3.8668 13.1871 3.90804C8.94505 3.94927 5.48222 7.43229 5.45262 11.6876C5.4422 13.1862 5.85859 14.5796 6.58749 15.755C6.70301 15.9413 6.64453 16.1888 6.45686 16.3078C6.2692 16.4268 6.02342 16.3723 5.90789 16.186C5.10285 14.8877 4.64312 13.3483 4.65461 11.6953C4.68728 6.99794 8.50989 3.15305 13.1926 3.10753C17.8754 3.06201 21.645 6.8331 21.6124 11.5305C21.5797 16.2279 17.7571 20.0728 13.0743 20.1183C11.3199 20.1354 9.69256 19.6163 8.34596 18.7132C8.16417 18.5913 8.1178 18.343 8.24237 18.1585C8.36694 17.9741 8.61529 17.9235 8.79708 18.0454C10.0165 18.8632 11.4895 19.3333 13.0799 19.3178Z" fill="#0A3D76"/>
<path fill-rule="evenodd" clip-rule="evenodd" d="M19.5076 16.3652L20.6928 17.5541L20.9895 17.5091C21.4252 17.443 21.8632 17.5861 22.1715 17.8954L26.7879 22.5263C27.0961 22.8355 27.2388 23.2747 27.173 23.7117L27.1481 23.877C27.1029 24.1774 26.962 24.4566 26.7465 24.6728L25.9405 25.4813C25.725 25.6975 25.4467 25.8388 25.1472 25.8842L24.9824 25.9091C24.5467 25.9751 24.109 25.832 23.8007 25.5228L19.1843 20.8918C18.876 20.5826 18.7333 20.1434 18.7991 19.7064L18.8439 19.4089L17.6586 18.2204L19.5076 16.3652ZM19.6429 19.4494L19.5882 19.813C19.56 20.0003 19.6211 20.1885 19.7532 20.321L24.3697 24.952C24.5018 25.0846 24.6894 25.1459 24.8761 25.1176L25.0409 25.0927C25.1693 25.0732 25.2886 25.0126 25.3809 24.92L26.1869 24.1114C26.2793 24.0188 26.3397 23.8991 26.359 23.7704L26.3839 23.6051C26.4121 23.4178 26.351 23.2296 26.2189 23.097L21.6025 18.4662C21.4704 18.3336 21.2827 18.2723 21.0959 18.3006L20.7332 18.3556L19.6429 19.4494ZM19.9839 17.9846L19.4982 17.4974L18.7872 18.2108L19.2729 18.6978L19.9839 17.9846Z" fill="#0A3D76"/>
<path d="M11.3705 11.6951C11.0332 11.8788 10.7373 11.6951 10.7373 12.4316V14.2277L11.3705 14.8608L12.0036 14.2277V12.535C11.8863 12.1128 11.7393 11.935 11.3705 11.6951Z" fill="#AAAAAA"/>
<path d="M12.9533 11.379L12.6367 11.844V14.5447L12.9447 14.8613H13.2699L13.903 14.2281L13.873 11.954C13.9264 11.8281 13.7693 11.4488 13.5864 11.379C13.3727 11.1313 13.2268 11.1868 12.9533 11.379Z" fill="#AAAAAA"/>
<path d="M15.1694 9.79736L14.5633 10.2608L14.5361 14.2294L15.1694 14.8626L15.8024 14.2294L15.8025 10.2608L15.4859 10.1139L15.1694 9.79736Z" fill="#AAAAAA"/>
<path fill-rule="evenodd" clip-rule="evenodd" d="M15.4981 7.90048C15.5437 7.91128 15.5822 7.94181 15.6031 7.98384L15.7858 8.35036C15.8248 8.42865 15.7932 8.52384 15.7151 8.56298C15.6372 8.60206 15.5425 8.57048 15.5034 8.49243C15.1323 9.60557 14.3573 10.3634 13.5192 10.8599C12.5864 11.4125 11.5665 11.6474 10.9065 11.6947C10.8195 11.701 10.7439 11.6352 10.7377 11.5479C10.7315 11.4606 10.797 11.3848 10.884 11.3786C11.5027 11.3342 12.4739 11.1111 13.3585 10.587C14.1293 10.1304 14.8277 9.45006 15.1785 8.46506C15.1099 8.507 15.0194 8.49053 14.9702 8.42469C14.9178 8.35467 14.932 8.25534 15.0017 8.20283L15.3671 7.92794C15.4045 7.89974 15.4526 7.88968 15.4981 7.90048Z" fill="#0A3D76"/>
<path fill-rule="evenodd" clip-rule="evenodd" d="M14.5361 10.3005C14.5361 10.0217 14.7515 9.79565 15.0171 9.79565H15.3215C15.5871 9.79565 15.8024 10.0217 15.8024 10.3005V12.2412C15.8024 12.3172 15.7437 12.3788 15.6713 12.3788C15.5988 12.3788 15.5401 12.3172 15.5401 12.2412V10.3005C15.5401 10.1738 15.4422 10.071 15.3215 10.071H15.0171C14.8964 10.071 14.7985 10.1738 14.7985 10.3005V14.356C14.7985 14.4827 14.8964 14.5855 15.0171 14.5855H15.3215C15.4422 14.5855 15.5401 14.4827 15.5401 14.356V12.7201C15.5401 12.6441 15.5988 12.5825 15.6713 12.5825C15.7437 12.5825 15.8024 12.6441 15.8024 12.7201V14.356C15.8024 14.6348 15.5871 14.8608 15.3215 14.8608H15.0171C14.7515 14.8608 14.5361 14.6348 14.5361 14.356V10.3005Z" fill="#0A3D76"/>
<path fill-rule="evenodd" clip-rule="evenodd" d="M12.6367 11.5916C12.6367 11.2996 12.8521 11.063 13.1177 11.063H13.422C13.6877 11.063 13.903 11.2996 13.903 11.5916V14.3333C13.903 14.6252 13.6877 14.8619 13.422 14.8619H13.0485C12.8211 14.8619 12.6367 14.6593 12.6367 14.4094C12.6367 14.3297 12.6954 14.2652 12.7679 14.2652C12.8403 14.2652 12.8991 14.3297 12.8991 14.4094C12.8991 14.5001 12.966 14.5736 13.0485 14.5736H13.422C13.5428 14.5736 13.6407 14.466 13.6407 14.3333V11.5916C13.6407 11.4589 13.5428 11.3513 13.422 11.3513H13.1177C12.9969 11.3513 12.8991 11.4589 12.8991 11.5916V14.101C12.8991 14.1806 12.8403 14.2452 12.7679 14.2452C12.6954 14.2452 12.6367 14.1806 12.6367 14.101V11.5916Z" fill="#0A3D76"/>
<path fill-rule="evenodd" clip-rule="evenodd" d="M10.7373 12.1978C10.7373 11.9202 10.9442 11.6951 11.1993 11.6951H11.5226C11.7883 11.6951 12.0036 11.9294 12.0036 12.2185V14.3374C12.0036 14.6265 11.7883 14.8608 11.5226 14.8608H11.2183C10.9526 14.8608 10.7373 14.6265 10.7373 14.3374V12.5579C10.7373 12.479 10.796 12.4151 10.8685 12.4151C10.9409 12.4151 10.9997 12.479 10.9997 12.5579V14.3374C10.9997 14.4688 11.0975 14.5753 11.2183 14.5753H11.5226C11.6434 14.5753 11.7413 14.4688 11.7413 14.3374V12.2185C11.7413 12.0871 11.6434 11.9806 11.5226 11.9806H11.1993C11.089 11.9806 10.9997 12.0778 10.9997 12.1978C10.9997 12.2767 10.9409 12.3406 10.8685 12.3406C10.796 12.3406 10.7373 12.2767 10.7373 12.1978Z" fill="#0A3D76"/>
</g>
<defs>
<clipPath id="clip0">
<rect width="32" height="32" fill="white" transform="translate(0 0.0622559)"/>
</clipPath>
</defs>
</svg>

<svg width="32" height="33" fill="none" xmlns="http://www.w3.org/2000/svg"><g clip-path="url(#clip0)"><path d="M19.55 19.32l-1.11-1.108 1.123-1.345.887.888.892-.005 5.544 5.768-2.242 2.242-5.544-5.768.45-.671z" fill="#AAA"/><path fill-rule="evenodd" clip-rule="evenodd" d="M13.177 5.508C9.816 5.54 7.073 8.3 7.049 11.67a5.973 5.973 0 006.043 6.045c3.36-.033 6.103-2.792 6.127-6.163a6.01 6.01 0 00-.899-3.223.404.404 0 01.13-.552.395.395 0 01.55.121 6.802 6.802 0 011.017 3.646c-.027 3.813-3.13 6.934-6.931 6.971a6.756 6.756 0 01-6.835-6.837c.027-3.813 3.13-6.935 6.931-6.972a6.745 6.745 0 013.838 1.141c.182.122.229.37.104.555a.401.401 0 01-.555.113 5.96 5.96 0 00-3.392-1.008z" fill="#0A3D76"/><path fill-rule="evenodd" clip-rule="evenodd" d="M13.08 19.318c4.242-.041 7.705-3.525 7.734-7.78a7.54 7.54 0 00-7.627-7.63c-4.242.041-7.705 3.524-7.734 7.78a7.586 7.586 0 001.134 4.067.405.405 0 01-.13.553.395.395 0 01-.55-.122 8.379 8.379 0 01-1.252-4.49c.032-4.698 3.855-8.543 8.538-8.588a8.323 8.323 0 018.42 8.422c-.033 4.698-3.856 8.543-8.539 8.588a8.309 8.309 0 01-4.728-1.405.398.398 0 01-.104-.555.401.401 0 01.555-.113 7.524 7.524 0 004.283 1.273z" fill="#0A3D76"/><path fill-rule="evenodd" clip-rule="evenodd" d="M19.508 16.365l1.185 1.19.296-.046c.436-.066.874.077 1.183.386l4.616 4.631c.308.31.45.749.385 1.186l-.025.165c-.045.3-.186.58-.401.796l-.806.808a1.422 1.422 0 01-.794.403l-.165.025a1.375 1.375 0 01-1.181-.386l-4.617-4.631a1.384 1.384 0 01-.385-1.186l.045-.297-1.185-1.189 1.849-1.855zm.135 3.084l-.055.364a.593.593 0 00.165.508l4.617 4.631c.132.133.32.194.506.166l.165-.025a.61.61 0 00.34-.173l.806-.809a.612.612 0 00.172-.34l.025-.166a.593.593 0 00-.165-.508l-4.617-4.63a.59.59 0 00-.506-.166l-.363.055-1.09 1.093zm.34-1.464l-.485-.488-.71.714.485.487.71-.713z" fill="#0A3D76"/><path d="M11.37 11.695c-.337.184-.633 0-.633.737v1.796l.633.633.634-.633v-1.693c-.118-.422-.265-.6-.633-.84zm1.583-.316l-.316.465v2.7l.308.317h.325l.633-.633-.03-2.274c.053-.126-.104-.505-.287-.575-.213-.248-.36-.192-.633 0zm2.217-1.582l-.607.464-.027 3.968.633.634.633-.634v-3.968l-.316-.147-.317-.317z" fill="#AAA"/><path fill-rule="evenodd" clip-rule="evenodd" d="M15.498 7.9a.159.159 0 01.105.084l.183.366a.159.159 0 01-.07.213.158.158 0 01-.213-.07c-.37 1.113-1.146 1.87-1.984 2.367a6.292 6.292 0 01-2.613.835.158.158 0 01-.022-.316 5.979 5.979 0 002.474-.792c.771-.457 1.47-1.137 1.82-2.122a.158.158 0 01-.208-.04.159.159 0 01.032-.222l.365-.275a.157.157 0 01.131-.028z" fill="#0A3D76"/><path fill-rule="evenodd" clip-rule="evenodd" d="M14.536 10.3c0-.278.216-.504.481-.504h.305c.265 0 .48.226.48.505v1.94a.134.134 0 01-.13.138.134.134 0 01-.132-.138v-1.94a.224.224 0 00-.218-.23h-.305a.224.224 0 00-.218.23v4.055c0 .127.097.23.218.23h.305c.12 0 .218-.103.218-.23V12.72c0-.076.059-.138.131-.138.073 0 .131.062.131.138v1.636a.493.493 0 01-.48.505h-.305a.493.493 0 01-.48-.505V10.3zm-1.899 1.292c0-.292.215-.529.48-.529h.305c.266 0 .481.237.481.529v2.741c0 .292-.215.529-.481.529h-.373c-.228 0-.412-.203-.412-.453 0-.08.058-.144.13-.144.073 0 .132.065.132.144 0 .091.067.165.15.165h.373c.12 0 .219-.108.219-.24v-2.742c0-.133-.098-.24-.219-.24h-.304c-.121 0-.219.107-.219.24V14.1c0 .08-.059.144-.131.144-.073 0-.131-.064-.131-.144v-2.51zm-1.9.606c0-.278.207-.503.462-.503h.324c.265 0 .48.234.48.524v2.118c0 .29-.215.524-.48.524h-.305c-.265 0-.48-.235-.48-.524v-1.78c0-.078.058-.142.13-.142.073 0 .132.064.132.143v1.78c0 .13.098.237.218.237h.305c.12 0 .218-.106.218-.238V12.22c0-.132-.098-.238-.218-.238h-.324c-.11 0-.2.097-.2.217 0 .079-.058.143-.13.143-.073 0-.132-.064-.132-.143z" fill="#0A3D76"/></g><defs><clipPath id="clip0"><path fill="#fff" transform="translate(0 .062)" d="M0 0h32v32H0z"/></clipPath></defs></svg>
